X: 2228
T: NORAH CREINA
Q: "Irish Jig."
R: Jig.
%R: jig
B: James Kerr "Merry Melodies" v.2 p.26 #228
Z: 2016 John Chambers <jc:trillian.mit.edu>
M: 6/8
L: 1/8
K: G
|:\
vg2vG uG2uA | vB2vG ud2uB | g2G G2B | A2B cBA |\
vg2vG uG2uA | vB2vG ud2uB | A2=f fef | A2B cBA :|
|:\
ddd d2c | B2G d2B | ddd d2B | A2B cBA |\
ddd d2c | B2G d2B | A2=f fef | A2B cBA :|
